dist/svg/u1F6C3.svg

<?xml version="1.0" encoding="UTF-8"?><svg id="a" xmlns="http://www.w3.org/2000/svg" viewBox="0 0 40 40"><g><rect x="3.5" y="3.5" width="33" height="33" rx="8" ry="8" fill="#007ff2"/><g><path d="M15.145,25.921c2.206-2.334,4.411-4.667,6.617-7.001v4.909l6.922-8.295h-6.922v.019c-.288,.041-.565,.173-.787,.408-2.592,2.743-5.185,5.486-7.777,8.229-.469,.496-.426,1.404,.109,1.839,.561,.457,1.339,.421,1.839-.109Z" fill="#fff"/><path d="M10.362,29.752c0,.289,.234,.523,.523,.523h8.577c.289,0,.523-.234,.523-.523v-1.564H10.362v1.564Z" fill="#fff"/><path d="M22.734,10.584h6.096v-1.054c0-.166-.135-.301-.301-.301h-6.31c-.31,0-.466,.375-.246,.595l.761,.761Z" fill="#fff"/><path d="M24.158,13.969c.478,.599,1.164,1.035,1.93,1.063,1.507,.055,2.746-1.151,2.746-2.646,0-.022-.006-.042-.006-.063h.003v-1.068h-6.095l-.543,.543h1.418c-.145,.639-.114,1.342,.548,2.171Z" fill="#fff"/><path d="M30.44,15.8l-8.651,10.807h7.402c.53,0,.959,.448,.959,1s-.429,1-.959,1h-7.428c0,1.196,.97,2.166,2.166,2.166h5.655c1.196,0,2.166-.97,2.166-2.166v-10.641c0-.948-.535-1.761-1.309-2.165Z" fill="#fff"/><path d="M8.251,19.117v8.577c0,.289,.234,.523,.523,.523h1.564v-9.624h-1.564c-.289,0-.523,.234-.523,.523Z" fill="#fff"/></g></g><rect y="0" width="40" height="40" fill="none"/></svg>

<svg id="Layer_1" data-name="Layer 1" xmlns="http://www.w3.org/2000/svg" viewBox="0 0 40 40"><defs><style>.cls-1{fill:#007ff2;}.cls-2{fill:#fff;}.cls-3{fill:none;}</style></defs><rect class="cls-1" x="3.5" y="3.5" width="33" height="33" rx="8"/><path class="cls-2" d="M15.145,25.921q3.309-3.5,6.617-7v4.909l6.922-8.295H21.762v.019a1.33,1.33,0,0,0-.787.408L13.2,24.19a1.315,1.315,0,0,0,.109,1.84A1.329,1.329,0,0,0,15.145,25.921Z"/><path class="cls-2" d="M10.362,29.752a.523.523,0,0,0,.523.523h8.578a.523.523,0,0,0,.523-.523V28.188H10.362Z"/><path class="cls-2" d="M22.734,10.584h6.1V9.529a.3.3,0,0,0-.3-.3h-6.31a.348.348,0,0,0-.246.6Z"/><path class="cls-2" d="M24.158,13.969a2.584,2.584,0,0,0,4.676-1.582c0-.022-.006-.042-.006-.064h0V11.255H22.735l-.543.543H23.61A2.373,2.373,0,0,0,24.158,13.969Z"/><path class="cls-2" d="M30.44,15.8,21.789,26.607h7.4a1,1,0,0,1,0,2H21.762a2.166,2.166,0,0,0,2.166,2.166h5.655a2.166,2.166,0,0,0,2.166-2.166V17.965A2.438,2.438,0,0,0,30.44,15.8Z"/><path class="cls-2" d="M8.251,19.117V27.7a.523.523,0,0,0,.524.523h1.563V18.594H8.775A.523.523,0,0,0,8.251,19.117Z"/><rect class="cls-3" width="40" height="40"/></svg>
